X:1
T:Farewell To Erin
R:reel
M:4/4
L:1/8
K:D
|:D2 (3FED FAAe|fedf edBA|D2FA GB~B2|AF~F2 EB,~B,2|
|D2 (3FED FAAe|fedf edBc|dBAF GFGB|1 AGFD EDD2:|2 AGFD EDDA|]
|:defg afdf|g2fg edBA|defg afdf|gefd e3A|
|defg afdf|g2fg edBA|dBAF GFGB|1 AGFD EDDA:|2 AGFD EDD2|]